X: 36066
T: Scartaglen, The
R: slide
M: 12/8
K: Dmajor
A2 a aga A2 g gfg|A2 a aga efg edB|
A2 a aga A2 g gfg|f/g/af gfe d3 dcB|
A2 a aga A2 g gfg|A2 a aga efg efg|
a2f g2e fed edc|B2f gfe d3 dcB||
|:cBA cee dfd cee|cBA cee [d2f2]f fed|
cBA cee dfd cec|B2f gfe d3 dcB:|

